src/images/icons/i-violet.svg

<svg width="30" height="30" viewBox="0 0 30 30" fill="none" xmlns="http://www.w3.org/2000/svg">
<path d="M14.9997 22.0833C15.4011 22.0833 15.7378 21.9473 16.0098 21.6753C16.2818 21.4033 16.4173 21.067 16.4163 20.6666V14.9645C16.4163 14.5631 16.2803 14.2326 16.0083 13.9728C15.7363 13.7131 15.4001 13.5833 14.9997 13.5833C14.5983 13.5833 14.2616 13.7193 13.9896 13.9913C13.7176 14.2633 13.5821 14.5995 13.583 14.9999V20.702C13.583 21.1034 13.719 21.4339 13.991 21.6937C14.263 21.9534 14.5992 22.0833 14.9997 22.0833ZM14.9997 10.7499C15.4011 10.7499 15.7378 10.6139 16.0098 10.3419C16.2818 10.0699 16.4173 9.7337 16.4163 9.33325C16.4163 8.93186 16.2803 8.59517 16.0083 8.32317C15.7363 8.05117 15.4001 7.91564 14.9997 7.91658C14.5983 7.91658 14.2616 8.05259 13.9896 8.32459C13.7176 8.59659 13.5821 8.93281 13.583 9.33325C13.583 9.73464 13.719 10.0713 13.991 10.3433C14.263 10.6153 14.5992 10.7509 14.9997 10.7499ZM14.9997 29.1666C13.04 29.1666 11.1983 28.7945 9.47468 28.0503C7.75106 27.306 6.25176 26.2969 4.97676 25.0228C3.70176 23.7478 2.69262 22.2485 1.94934 20.5249C1.20606 18.8013 0.833952 16.9596 0.833008 14.9999C0.833008 13.0402 1.20512 11.1985 1.94934 9.47492C2.69356 7.75131 3.7027 6.252 4.97676 4.977C6.25176 3.702 7.75106 2.69286 9.47468 1.94959C11.1983 1.20631 13.04 0.834196 14.9997 0.833252C16.9594 0.833252 18.8011 1.20536 20.5247 1.94959C22.2483 2.69381 23.7476 3.70295 25.0226 4.977C26.2976 6.252 27.3072 7.75131 28.0514 9.47492C28.7956 11.1985 29.1673 13.0402 29.1663 14.9999C29.1663 16.9596 28.7942 18.8013 28.05 20.5249C27.3058 22.2485 26.2966 23.7478 25.0226 25.0228C23.7476 26.2978 22.2483 27.3074 20.5247 28.0517C18.8011 28.7959 16.9594 29.1675 14.9997 29.1666Z" fill="#6F5FFE"/>
</svg>

<svg width="30" height="30" fill="none" xmlns="http://www.w3.org/2000/svg"><path d="M15 22.083c.401 0 .738-.136 1.01-.408.272-.272.407-.608.406-1.008v-5.703c0-.4-.136-.731-.408-.991a1.404 1.404 0 0 0-1.008-.39c-.402 0-.738.136-1.01.408A1.365 1.365 0 0 0 13.583 15v5.702c0 .401.136.732.408.992.272.26.608.39 1.009.39zm0-11.333c.401 0 .738-.136 1.01-.408.272-.272.407-.608.406-1.009 0-.401-.136-.738-.408-1.01A1.365 1.365 0 0 0 15 7.917c-.402 0-.738.136-1.01.408a1.365 1.365 0 0 0-.407 1.008c0 .402.136.738.408 1.01.272.272.608.408 1.009.407zm0 18.417c-1.96 0-3.802-.373-5.525-1.117a14.329 14.329 0 0 1-4.498-3.027 14.297 14.297 0 0 1-3.028-4.498C1.206 18.8.834 16.96.833 15c0-1.96.372-3.802 1.116-5.525a14.328 14.328 0 0 1 3.028-4.498A14.296 14.296 0 0 1 9.475 1.95C11.198 1.206 13.04.834 15 .833c1.96 0 3.801.372 5.525 1.117a14.328 14.328 0 0 1 4.498 3.027 14.316 14.316 0 0 1 3.028 4.498c.745 1.723 1.116 3.565 1.115 5.525 0 1.96-.372 3.801-1.116 5.525a14.329 14.329 0 0 1-3.027 4.498 14.318 14.318 0 0 1-4.498 3.029c-1.724.744-3.566 1.116-5.525 1.115z" fill="#6F5FFE"/></svg>
